T: Providence, The
M: 4/4
L: 1/8
K: Dmaj
|: EDCE DEFA | d2 fd gdfd | ed (3Bcd AdcA | (3Bcd AF EGFD |E3 F DEFA | d2 fd gdfd | ed (3Bcd AdcA | (3Bcd AGFD D2 :||: fddd fdad | fddd ec A2 | fddd fdad | ceag fd d2 |fggf gfec | cBAF G2 FG | AA^GB ABde | (3fga ea fd d2 :|E3F DEFA |: d2 fd gdfd | ed (3Bcd AdcA | (3Bcd AF EGFD |E3 F DEFA | d2 fd gdfd | ed (3Bcd AdcA | (3Bcd AGFD D2 |1 EDCE DEFA :|E3 F DEFA | d2 fd gdfd | ed (3Bcd AdcA | (3Bcd AF EGFD |E3 F DEFA | d2 fd gdfd | ed (3Bcd AdcA | (3Bcd AGFD D2 | EDCE DEFA | d2 fd gdfd | ed (3Bcd AdcA | (3Bcd AF EGFD |E3 F DEFA | d2 fd gdfd | ed (3Bcd AdcA | (3Bcd AGFD D2 |||: E3 F DEFA | ~ or ~ |: EDCE DEFA | ~
